X: 21192
T: MISS ELPHINSTONE'S STRATHSPEY
R: strathspey
B: K\"ohler's Violin Repository, v.2, 1885 p.119 #2
F: http://www.archive.org/details/klersviolinrepos02rugg
Z: 2012 John Chambers <jc:trillian.mit.edu>
M: C|
L: 1/16
K: A
uc2|\
[A4A4] (E2FG) (AGFE) (F3C) | DF3 E3C B,(B3"_>"B3d) |\
(3c2d2e2 (3A2B2c2 (3d2e2g2 (B3{cB}A) | (3G2A2B2 (E3d) cA3-A2 :|
(ufg) |\
(agfe) (c3a) (d3b) (c3a) | (A3a) (c3a) BBB2 (B3g) |\
(agfe) (c3a) (d3b) (c3a) | (F3d) (B3e) cA3-A2 ||
(ufg) |\
(agfe) (c3a) (d3f) (c3a) | (A3a) (c3a) (fe)dc (Bc)df |\
(ed)cB (A3E) FA3D3f | ec3 a3c "_Segue Reel."AAA2 A2 "^D.C."|]

%%sep 2 1 500

